X:6
T:Bill Sullivan's
Z: id:dc-polka-5
M:2/4
L:1/8
K:A Major
a2 a>f|ec a>f|ec a>f|ec BA|!
a2 a>f|ec a2|ce B>c|BA A2:|!
ce e2|df f2|ce e2|cB B2|!
ce e2|df f2|ce B>c|BA A2:|!